X:1
T: Muriel Johnstone's Compliments to Robert MacKay
C:Muriel A Johnstone
R:Strathspey
%Q: 128
K:Bb
M:4/4
L:1/16
|:d4 d3B GE3 E4|e4 g3B AF3 F4|A3c ((3fga) b2f2 d2B2|g3e c3B AF3 F4|
d4 d3B GE3 E4|e4 g3B AF3 F4|A3c ((3fga) ((3bab) ((3fed) |g3e c3f dB3 B4|
B,3D FD3 B4 ((3BAB) |G3e FD3 E3C CD3|B,3D FD3 B4 ((3BAB) |((3gfe) ((3dcB) AF3 F3A|
B3d fd3 d4 ((3bab) |a3g f3=e fd3 d4|d4 d3B GE3 E3e|ge3 c3a bB3 B4:|
